X:1
T: Hunt the Cat
C:
R:Jig
Q:180
K:Dm
M:6/8
L:1/16
|:D2E2D2 D4A2|A2G2E2 c6|D2E2D2 D4A2|A2G2E2 E4D2|
D2E2D2 D4A2|A2G2E2 c6|A2=B2c2 d4B2|A2G2E2 E4D2:|
|:d2c2A2 A2G2E2|A2G2E2 c6|d2c2A2 A2G2E2|A2G2E2 E4D2|
d2c2A2 A2G2E2|A2G2E2 c6|A2=B2c2 d4c2|A2G2E2 E4D2:|
